!!!SOCIAL_FUNCTION:	miscellaneous songs
!!!PDT:	1957
!!!OTL: No_3_Song_When_Setting_Up_Iatiku's_Altar.krn
!!!LING_GROUP: Keresan
!!!LANG: Tone
!!!REG: Southwest
**kern
*staff1
=1-
=
*clefF4
*k[f#]
*M3/4
16d\LL
16d\
16.d\
32d\JJk
(8d\L
8G\J)
8G\L
8G\J
=2
16B\LL
16A\
16.A\
32A\JJk
8A\L
8G\J
8G\L
8G\J
=3
16B\LL
16A\
16.A\
32A\JJk
8A\L
8G\J
8G\L
8G\J
=4
*M2/4
8A\L
8A\J
8G\L
8G\J
=5
8A\L
8A\J
8G\L
8G\J
=6
8G\L
8G\J
8G\
8r
=7:|!
4B\
4A\
=8
8A\L
8G\J
8G\L
8G\J
=9
8.B\L
16A\Jk
4A\
=10
8A\L
8G\J
8G\L
8G\J
=11
8B\L
8A\J
8.A\L
16A\Jk
=12
8A\L
8G\J
8G\L
8G\J
=13
*M3/4
8A\L
8G\J
4G\
8G\L
8A\J
=14
8G\L
8G\J
8G\L
8G\J
4r
==
*-
